images/htmlacademy-text.svg

<svg width="112" height="16" viewBox="0 0 112 16" fill="none" xmlns="http://www.w3.org/2000/svg">
<path d="M9.752 1.036V12.5H8.2V7.284H2.016V12.5H0.464V1.036H2.016V6.148H8.2V1.036H9.752ZM20.4348 2.34H16.7228V12.5H15.1788V2.34H11.4588V1.036H20.4348V2.34ZM34.0639 1.036V12.5H32.7039V4.076C32.7039 3.964 32.7065 3.844 32.7119 3.716C32.7225 3.588 32.7332 3.45733 32.7439 3.324L28.8079 10.492C28.6852 10.732 28.4985 10.852 28.2479 10.852H28.0239C27.7732 10.852 27.5865 10.732 27.4639 10.492L23.4479 3.292C23.4799 3.57467 23.4959 3.836 23.4959 4.076V12.5H22.1359V1.036H23.2799C23.4185 1.036 23.5252 1.04933 23.5999 1.076C23.6745 1.10267 23.7465 1.17733 23.8159 1.3L27.7759 8.356C27.8399 8.484 27.9012 8.61733 27.9599 8.756C28.0239 8.89467 28.0825 9.036 28.1359 9.18C28.1892 9.036 28.2452 8.89467 28.3039 8.756C28.3625 8.612 28.4265 8.476 28.4959 8.348L32.3839 1.3C32.4479 1.17733 32.5172 1.10267 32.5919 1.076C32.6719 1.04933 32.7812 1.036 32.9199 1.036H34.0639ZM43.4993 11.196V12.5H36.9953V1.036H38.5393V11.196H43.4993ZM54.3801 8.244L52.5801 3.58C52.5268 3.44133 52.4708 3.28133 52.4121 3.1C52.3535 2.91333 52.2975 2.716 52.2441 2.508C52.1321 2.94 52.0175 3.3 51.9001 3.588L50.1001 8.244H54.3801ZM57.6121 12.5H56.4121C56.2735 12.5 56.1615 12.4653 56.0761 12.396C55.9908 12.3267 55.9268 12.2387 55.8841 12.132L54.8121 9.364H49.6681L48.5961 12.132C48.5641 12.228 48.5028 12.3133 48.4121 12.388C48.3215 12.4627 48.2095 12.5 48.0761 12.5H46.8761L51.4601 1.036H53.0281L57.6121 12.5ZM64.2055 5.836C64.1628 5.89467 64.1202 5.94 64.0775 5.972C64.0348 6.004 63.9762 6.02 63.9015 6.02C63.8215 6.02 63.7335 5.988 63.6375 5.924C63.5415 5.85467 63.4215 5.78 63.2775 5.7C63.1388 5.62 62.9655 5.548 62.7575 5.484C62.5548 5.41467 62.3042 5.38 62.0055 5.38C61.6055 5.38 61.2535 5.452 60.9495 5.596C60.6455 5.73467 60.3895 5.93733 60.1815 6.204C59.9788 6.47067 59.8242 6.79333 59.7175 7.172C59.6162 7.55067 59.5655 7.97467 59.5655 8.444C59.5655 8.93467 59.6215 9.372 59.7335 9.756C59.8455 10.1347 60.0028 10.4547 60.2055 10.716C60.4135 10.972 60.6615 11.1693 60.9495 11.308C61.2428 11.4413 61.5708 11.508 61.9335 11.508C62.2802 11.508 62.5655 11.468 62.7895 11.388C63.0135 11.3027 63.1975 11.2093 63.3415 11.108C63.4908 11.0067 63.6135 10.916 63.7095 10.836C63.8108 10.7507 63.9095 10.708 64.0055 10.708C64.1228 10.708 64.2135 10.7533 64.2775 10.844L64.6775 11.364C64.5015 11.5827 64.3015 11.7693 64.0775 11.924C63.8535 12.0787 63.6108 12.2093 63.3495 12.316C63.0935 12.4173 62.8242 12.492 62.5415 12.54C62.2588 12.588 61.9708 12.612 61.6775 12.612C61.1708 12.612 60.6988 12.5187 60.2615 12.332C59.8295 12.1453 59.4535 11.876 59.1335 11.524C58.8135 11.1667 58.5628 10.7293 58.3815 10.212C58.2002 9.69467 58.1095 9.10533 58.1095 8.444C58.1095 7.84133 58.1922 7.284 58.3575 6.772C58.5282 6.26 58.7735 5.82 59.0935 5.452C59.4188 5.07867 59.8162 4.788 60.2855 4.58C60.7602 4.372 61.3042 4.268 61.9175 4.268C62.4882 4.268 62.9895 4.36133 63.4215 4.548C63.8588 4.72933 64.2455 4.988 64.5815 5.324L64.2055 5.836ZM70.5981 8.852C69.9421 8.87333 69.3821 8.92667 68.9181 9.012C68.4595 9.092 68.0835 9.19867 67.7901 9.332C67.5021 9.46533 67.2915 9.62267 67.1581 9.804C67.0301 9.98533 66.9661 10.188 66.9661 10.412C66.9661 10.6253 67.0008 10.8093 67.0701 10.964C67.1395 11.1187 67.2328 11.2467 67.3501 11.348C67.4728 11.444 67.6141 11.516 67.7741 11.564C67.9395 11.6067 68.1155 11.628 68.3021 11.628C68.5528 11.628 68.7821 11.604 68.9901 11.556C69.1981 11.5027 69.3928 11.428 69.5741 11.332C69.7608 11.236 69.9368 11.1213 70.1021 10.988C70.2728 10.8547 70.4381 10.7027 70.5981 10.532V8.852ZM65.9981 5.54C66.4461 5.108 66.9288 4.78533 67.4461 4.572C67.9635 4.35867 68.5368 4.252 69.1661 4.252C69.6195 4.252 70.0221 4.32667 70.3741 4.476C70.7261 4.62533 71.0221 4.83333 71.2621 5.1C71.5021 5.36667 71.6835 5.68933 71.8061 6.068C71.9288 6.44667 71.9901 6.86267 71.9901 7.316V12.5H71.3581C71.2195 12.5 71.1128 12.4787 71.0381 12.436C70.9635 12.388 70.9048 12.2973 70.8621 12.164L70.7021 11.396C70.4888 11.5933 70.2808 11.7693 70.0781 11.924C69.8755 12.0733 69.6621 12.2013 69.4381 12.308C69.2141 12.4093 68.9741 12.4867 68.7181 12.54C68.4675 12.5987 68.1875 12.628 67.8781 12.628C67.5635 12.628 67.2675 12.5853 66.9901 12.5C66.7128 12.4093 66.4701 12.276 66.2621 12.1C66.0595 11.924 65.8968 11.7027 65.7741 11.436C65.6568 11.164 65.5981 10.844 65.5981 10.476C65.5981 10.156 65.6861 9.84933 65.8621 9.556C66.0381 9.25733 66.3235 8.99333 66.7181 8.764C67.1128 8.53467 67.6275 8.348 68.2621 8.204C68.8968 8.05467 69.6755 7.96933 70.5981 7.948V7.316C70.5981 6.68667 70.4621 6.212 70.1901 5.892C69.9181 5.56667 69.5208 5.404 68.9981 5.404C68.6461 5.404 68.3501 5.44933 68.1101 5.54C67.8755 5.62533 67.6701 5.724 67.4941 5.836C67.3235 5.94267 67.1741 6.04133 67.0461 6.132C66.9235 6.21733 66.8008 6.26 66.6781 6.26C66.5821 6.26 66.4995 6.236 66.4301 6.188C66.3608 6.13467 66.3021 6.07067 66.2541 5.996L65.9981 5.54ZM79.4393 6.324C79.1726 5.96667 78.8846 5.71867 78.5753 5.58C78.2659 5.436 77.9193 5.364 77.5353 5.364C76.7833 5.364 76.2046 5.63333 75.7993 6.172C75.3939 6.71067 75.1913 7.47867 75.1913 8.476C75.1913 9.004 75.2366 9.45733 75.3273 9.836C75.4179 10.2093 75.5513 10.5187 75.7273 10.764C75.9033 11.004 76.1193 11.18 76.3753 11.292C76.6313 11.404 76.9219 11.46 77.2473 11.46C77.7166 11.46 78.1246 11.3533 78.4713 11.14C78.8233 10.9267 79.1459 10.6253 79.4393 10.236V6.324ZM80.8633 0.716V12.5H80.0153C79.8126 12.5 79.6846 12.4013 79.6313 12.204L79.5033 11.22C79.1566 11.636 78.7619 11.972 78.3193 12.228C77.8766 12.484 77.3646 12.612 76.7833 12.612C76.3193 12.612 75.8979 12.524 75.5193 12.348C75.1406 12.1667 74.8179 11.9027 74.5513 11.556C74.2846 11.2093 74.0793 10.7773 73.9353 10.26C73.7913 9.74267 73.7193 9.148 73.7193 8.476C73.7193 7.87867 73.7993 7.324 73.9593 6.812C74.1193 6.29467 74.3486 5.84667 74.6473 5.468C74.9459 5.08933 75.3113 4.79333 75.7433 4.58C76.1806 4.36133 76.6713 4.252 77.2153 4.252C77.7113 4.252 78.1353 4.33733 78.4873 4.508C78.8446 4.67333 79.1619 4.90533 79.4393 5.204V0.716H80.8633ZM88.5364 7.564C88.5364 7.23333 88.4884 6.932 88.3924 6.66C88.3017 6.38267 88.1657 6.14533 87.9844 5.948C87.8084 5.74533 87.5924 5.59067 87.3364 5.484C87.0804 5.372 86.7897 5.316 86.4644 5.316C85.7817 5.316 85.2404 5.516 84.8404 5.916C84.4457 6.31067 84.2004 6.86 84.1044 7.564H88.5364ZM89.6884 11.364C89.5124 11.5773 89.3017 11.764 89.0564 11.924C88.811 12.0787 88.547 12.2067 88.2644 12.308C87.987 12.4093 87.699 12.484 87.4004 12.532C87.1017 12.5853 86.8057 12.612 86.5124 12.612C85.9524 12.612 85.435 12.5187 84.9604 12.332C84.491 12.14 84.083 11.8627 83.7364 11.5C83.395 11.132 83.1284 10.6787 82.9364 10.14C82.7444 9.60133 82.6484 8.98267 82.6484 8.284C82.6484 7.71867 82.7337 7.19067 82.9044 6.7C83.0804 6.20933 83.331 5.78533 83.6564 5.428C83.9817 5.06533 84.379 4.78267 84.8484 4.58C85.3177 4.372 85.8457 4.268 86.4324 4.268C86.9177 4.268 87.3657 4.35067 87.7764 4.516C88.1924 4.676 88.5497 4.91067 88.8484 5.22C89.1524 5.524 89.3897 5.90267 89.5604 6.356C89.731 6.804 89.8164 7.316 89.8164 7.892C89.8164 8.116 89.7924 8.26533 89.7444 8.34C89.6964 8.41467 89.6057 8.452 89.4724 8.452H84.0564C84.0724 8.964 84.1417 9.40933 84.2644 9.788C84.3924 10.1667 84.5684 10.484 84.7924 10.74C85.0164 10.9907 85.283 11.18 85.5924 11.308C85.9017 11.4307 86.2484 11.492 86.6324 11.492C86.9897 11.492 87.2964 11.452 87.5524 11.372C87.8137 11.2867 88.0377 11.196 88.2244 11.1C88.411 11.004 88.5657 10.916 88.6884 10.836C88.8164 10.7507 88.9257 10.708 89.0164 10.708C89.1337 10.708 89.2244 10.7533 89.2884 10.844L89.6884 11.364ZM91.5655 12.5V4.396H92.4215C92.6242 4.396 92.7495 4.49467 92.7975 4.692L92.9015 5.524C93.2002 5.156 93.5362 4.85467 93.9095 4.62C94.2828 4.38533 94.7148 4.268 95.2055 4.268C95.7495 4.268 96.1895 4.42 96.5255 4.724C96.8668 5.028 97.1122 5.43867 97.2615 5.956C97.3788 5.66267 97.5282 5.40933 97.7095 5.196C97.8962 4.98267 98.1042 4.80667 98.3335 4.668C98.5628 4.52933 98.8055 4.428 99.0615 4.364C99.3228 4.3 99.5868 4.268 99.8535 4.268C100.28 4.268 100.659 4.33733 100.99 4.476C101.326 4.60933 101.608 4.80667 101.838 5.068C102.072 5.32933 102.251 5.652 102.374 6.036C102.496 6.41467 102.558 6.84933 102.558 7.34V12.5H101.126V7.34C101.126 6.70533 100.987 6.22533 100.71 5.9C100.432 5.56933 100.032 5.404 99.5095 5.404C99.2748 5.404 99.0508 5.44667 98.8375 5.532C98.6295 5.612 98.4455 5.732 98.2855 5.892C98.1255 6.052 97.9975 6.25467 97.9015 6.5C97.8108 6.74 97.7655 7.02 97.7655 7.34V12.5H96.3335V7.34C96.3335 6.68933 96.2028 6.204 95.9415 5.884C95.6802 5.564 95.2988 5.404 94.7975 5.404C94.4455 5.404 94.1202 5.5 93.8215 5.692C93.5228 5.87867 93.2482 6.13467 92.9975 6.46V12.5H91.5655ZM111.511 4.396L106.991 14.892C106.943 14.9987 106.881 15.084 106.807 15.148C106.737 15.212 106.628 15.244 106.479 15.244H105.423L106.903 12.028L103.559 4.396H104.791C104.913 4.396 105.009 4.428 105.079 4.492C105.153 4.55067 105.204 4.61733 105.231 4.692L107.399 9.796C107.484 10.02 107.556 10.2547 107.615 10.5C107.689 10.2493 107.769 10.012 107.855 9.788L109.959 4.692C109.991 4.60667 110.044 4.53733 110.119 4.484C110.199 4.42533 110.287 4.396 110.383 4.396H111.511Z" fill="#444444"/>
</svg>

<svg viewBox="0 0 112 16" fill="none" xmlns="http://www.w3.org/2000/svg"><path d="M9.75 1.04v11.46h-1.55v-5.22h-6.18v5.22h-1.56v-11.46h1.56v5.1h6.18v-5.1h1.55Zm10.68 1.3h-3.7v10.16h-1.55v-10.16h-3.72v-1.3h8.97v1.3Zm13.63-1.3v11.46h-1.36v-8.42a8.56 8.56 0 0 1 .04-.76l-3.93 7.17a.6.6 0 0 1-.56.36h-.23c-.25 0-.43-.12-.56-.36l-4.01-7.2a7 7 0 0 1 .05.79v8.42h-1.36v-11.46h1.14a1 1 0 0 1 .32.04c.07.02.15.1.22.22l3.96 7.06a6.97 6.97 0 0 1 .36.82 9.93 9.93 0 0 1 .36-.83l3.88-7.05c.07-.12.14-.2.21-.22.08-.03.2-.04.33-.04h1.14Zm9.44 10.16v1.3h-6.5v-11.46h1.54v10.16h4.96Zm10.88-2.96-1.8-4.66a9.55 9.55 0 0 1-.34-1.07c-.1.43-.22.79-.34 1.08l-1.8 4.65h4.28Zm3.23 4.26h-1.2a.52.52 0 0 1-.33-.1.64.64 0 0 1-.2-.27l-1.07-2.77h-5.14l-1.07 2.77c-.04.1-.1.18-.19.26a.52.52 0 0 1-.33.11h-1.2l4.58-11.46h1.57l4.58 11.46Zm6.6-6.66a.64.64 0 0 1-.13.13.29.29 0 0 1-.18.05.49.49 0 0 1-.26-.1 3.65 3.65 0 0 0-.88-.44c-.2-.07-.46-.1-.75-.1-.4 0-.76.07-1.06.22-.3.13-.56.34-.77.6-.2.27-.36.6-.46.97-.1.38-.15.8-.15 1.27 0 .5.05.93.16 1.32.12.37.27.7.48.96.2.25.45.45.74.59.3.13.62.2.98.2.35 0 .64-.04.86-.12.22-.09.4-.18.55-.28l.37-.27c.1-.09.2-.13.3-.13.11 0 .2.04.27.13l.4.52c-.18.22-.38.4-.6.56a3.81 3.81 0 0 1-1.54.62 4.9 4.9 0 0 1-.86.07c-.5 0-.98-.1-1.42-.28a3.29 3.29 0 0 1-1.88-2.12 5.33 5.33 0 0 1-.27-1.77c0-.6.08-1.16.25-1.67a3.5 3.5 0 0 1 1.93-2.19c.47-.2 1.01-.31 1.63-.31a3.55 3.55 0 0 1 2.66 1.06l-.37.5Zm6.39 3.01c-.66.02-1.22.08-1.68.16-.46.08-.84.19-1.13.32-.29.14-.5.3-.63.47-.13.19-.2.39-.2.61 0 .22.04.4.11.55.07.16.16.29.28.39.12.1.26.17.42.21.17.05.35.07.53.07a2.65 2.65 0 0 0 1.27-.3 4.36 4.36 0 0 0 1.02-.8v-1.68Zm-4.6-3.31a4.47 4.47 0 0 1 3.17-1.29c.45 0 .85.08 1.2.23a2.48 2.48 0 0 1 1.44 1.59c.12.38.18.8.18 1.25v5.18h-.63a.65.65 0 0 1-.32-.06c-.08-.05-.14-.14-.18-.28l-.16-.76c-.21.2-.42.37-.62.52a3.45 3.45 0 0 1-1.36.62 3.69 3.69 0 0 1-1.73-.04c-.28-.1-.52-.22-.73-.4-.2-.18-.36-.4-.49-.66a2.6 2.6 0 0 1-.17-.96c0-.32.09-.63.26-.92.18-.3.46-.57.86-.8.4-.23.9-.41 1.54-.56.64-.15 1.42-.23 2.34-.25v-.63c0-.63-.14-1.1-.41-1.43-.27-.32-.67-.49-1.2-.49a2.53 2.53 0 0 0-1.5.44c-.17.1-.32.2-.44.3a.64.64 0 0 1-.37.12.42.42 0 0 1-.25-.07.76.76 0 0 1-.18-.2l-.25-.45Zm13.44.78c-.27-.35-.56-.6-.86-.74a2.51 2.51 0 0 0-1.04-.22c-.76 0-1.34.27-1.74.81-.4.54-.6 1.3-.6 2.3 0 .53.04.99.13 1.37.09.37.22.68.4.92.17.24.39.42.65.53.25.11.54.17.87.17.47 0 .87-.1 1.22-.32.35-.21.68-.51.97-.9v-3.92Zm1.42-5.6v11.78h-.84c-.2 0-.34-.1-.39-.3l-.13-.98c-.34.42-.74.75-1.18 1a3 3 0 0 1-1.54.4 2.66 2.66 0 0 1-2.23-1.06 3.75 3.75 0 0 1-.61-1.3 6.67 6.67 0 0 1 .02-3.45c.16-.52.39-.96.69-1.34a3.16 3.16 0 0 1 2.57-1.22 2.9 2.9 0 0 1 2.22.95v-4.48h1.42Zm7.68 6.84c0-.33-.05-.63-.15-.9a1.92 1.92 0 0 0-1.93-1.34c-.68 0-1.22.2-1.62.6-.4.4-.64.94-.74 1.64h4.44Zm1.15 3.8c-.18.22-.39.4-.63.56a4.03 4.03 0 0 1-1.66.61c-.3.06-.6.08-.89.08a4.2 4.2 0 0 1-1.55-.28 3.51 3.51 0 0 1-2.02-2.19 5.51 5.51 0 0 1-.04-3.44 3.68 3.68 0 0 1 1.95-2.12 3.87 3.87 0 0 1 2.93-.06 3.1 3.1 0 0 1 1.78 1.84c.17.44.26.96.26 1.53 0 .23-.03.38-.08.45-.04.07-.13.11-.27.11h-5.41c.01.51.08.96.2 1.34a2.35 2.35 0 0 0 1.33 1.52c.31.12.66.18 1.04.18a3.1 3.1 0 0 0 1.6-.39c.18-.1.34-.18.46-.26a.63.63 0 0 1 .33-.13c.11 0 .2.04.27.13l.4.52Zm1.88 1.14v-8.1h.85c.2 0 .33.1.38.3l.1.82c.3-.36.64-.67 1-.9.38-.23.81-.35 1.3-.35.55 0 .99.15 1.33.45.34.3.58.72.73 1.24a2.65 2.65 0 0 1 1.8-1.6 3.32 3.32 0 0 1 1.93.12c.34.13.62.33.85.59.23.26.41.58.53.97.13.37.19.8.19 1.3v5.16h-1.43v-5.16c0-.63-.14-1.11-.42-1.44-.28-.33-.68-.5-1.2-.5a1.8 1.8 0 0 0-1.22.5c-.16.15-.3.35-.39.6a2.4 2.4 0 0 0-.13.84v5.16h-1.44v-5.16c0-.65-.13-1.14-.39-1.46-.26-.32-.64-.48-1.14-.48-.35 0-.68.1-.98.3-.3.18-.57.43-.82.76v6.04h-1.43Zm19.94-8.1-4.52 10.5c-.05.1-.1.18-.18.25a.5.5 0 0 1-.33.1h-1.06l1.48-3.22-3.34-7.63h1.23c.12 0 .22.03.29.1.07.05.12.12.15.2l2.17 5.1c.08.22.16.45.21.7.08-.25.16-.49.25-.71l2.1-5.1a.44.44 0 0 1 .16-.2.44.44 0 0 1 .26-.1h1.13Z" fill="#444"/></svg>
